X: 1306
T: Bow Wow Wow
B: australian traditional tunes wiki
M:6/8
L:1/8
R: Jig
Q: 3/8=100
K:G
V:1 
d||"G"G2G G2G|G2G G2G|"D"A2Ad2d|"G"BG4G|"A7"A2AA2A|
A2AA2A|d2ee2g|"D"fd4d|"G"dB2g2f|"C"e2d "G"d2B|
"D7"c2Bc2d|"G"ed4d|g2gg2G|G2GB2D|"Am"E2AA2B|"D"A2GF2E|
"G"G3G3|G3-Gz2|d2d e2f|g2d "C"e2c|"G"B3 "D"A3|"G"G4||
% abcbook-tune_id 6342d53ab32dc376776dcd52


% abcbook-boost 0
% abcbook-tablature 
% abcbook-transpose 
% abcbook-lastupdated 1665324358321
% abcbook-soundfonts 
% abcbook-repeats 1
% NFF Book 2014

